X:1693
L:1/8
M:4/4
K:C
 c2 | ad | g2 |[M:4/4][K:C] e!p!ecve"^reel".AB | c2 gc acgc | c2 ge dBGB | c2 gc acgc | fage dBGB | 
"^5" c2 gc acgc | Bcge dcBd | c2 gc acgc | eage dBGB ||"^9" A2 (3cBA eAcA | (3AGA ge dBGB | 
 A2 (3cBA eAcA | gfgd BGGB |"^13" A2 (3cBA eAcA | A2 ge dBGB | A2 (3cBA eAcA | g2 gd BGGB | 
"^17" cdef gfge | cdec dBGB | cdef gfge | afge dBGB :|"^21" (3cBA eA fAeA | (3cBA eA dBGB | 
 (3cBA eA fAeA | g2 gd BGGB :|"^25" Aceg fdec | Acec dBGB | Aceg fdef | gfge dBGB :| 
"^33" (3cBA eA (3cBA eA | (3cBA eA dBGB | (3cBA eA (3cBA ef | gfge dBGB :|

